packages/components/Atoms/Icon/assets/img/rpl_icon_linkedin.svg

<svg width="14" height="14" viewBox="0 0 14 14" overflow="visible" xmlns="http://www.w3.org/2000/svg">
  <path d="M3.13368 13.6111H0.231198V4.52387H3.13368V13.6111ZM1.68087 3.28429C0.752957 3.28429 0 2.53689 0 1.63455C0 0.732204 0.752957 0 1.68087 0C2.60879 0 3.36175 0.732204 3.36175 1.63455C3.36175 2.53689 2.60879 3.28429 1.68087 3.28429ZM13.9969 13.6111H11.1006V9.1875C11.1006 8.13325 11.0788 6.78125 9.59161 6.78125C8.08257 6.78125 7.85137 7.92665 7.85137 9.11155V13.6111H4.95202V4.52387H7.73577V5.76345H7.77639C8.1638 5.04948 9.11047 4.29601 10.5227 4.29601C13.4595 4.29601 14 6.17665 14 8.61936V13.6111H13.9969Z"
    fill="inherit" />
</svg>

<svg width="14" height="14" overflow="visible" xmlns="http://www.w3.org/2000/svg"><path d="M3.134 13.611H.23V4.524h2.903v9.087zM1.68 3.284C.753 3.284 0 2.537 0 1.634 0 .733.753 0 1.68 0c.929 0 1.682.732 1.682 1.635 0 .902-.753 1.65-1.681 1.65zm12.316 10.327H11.1V9.187c0-1.054-.022-2.406-1.51-2.406-1.508 0-1.74 1.146-1.74 2.33v4.5H4.952V4.524h2.784v1.24h.04c.388-.715 1.334-1.468 2.747-1.468C13.46 4.296 14 6.176 14 8.619v4.992h-.003z" fill="inherit"/></svg>
